X:1
T:Multi dicunt animae meae
T:Constantijn Huygens
T:Multi dicunt animae meae
T:Psalmus 3:3,4
C:Constantijn Huygens
%%score 1 { ( 2 4 ) | 3 }
L:1/8
Q:1/4=80
M:4/4
K:F
V:1 treble nm="Voice" snm="V"
V:2 treble nm="Organ" snm="Org."
V:4 treble 
V:3 bass 
V:1
 z2 F3 FFF | F2 F2 z2 FG | AA A4 Bc | c4 A4 | AGFF BBAA | dc=BA GF E2- | E2 DD D4 | C8 :: %8
w: Mul- ti di- cunt,|mul- ti mul- ti|di- cunt a- ni- mae|me- ae:|non est sa- lus, non est sa- lus,|non est sa- lus ip- si in|_ De- o e-|ius.|
[M:3/4] G2 G2 G2 | G3 G G2 | z2 c>c =Bc | d4 G2 | z2 z2 c=B |[M:4/4] c4 A2 AA | AA d4 dd | %15
w: Tu au- tem|Do- mi- ne,|Do- mi- ne su-|scep- tor|me- us|es, glo- ri- a|me- a, glo- ri- a|
 d>d dd e4- | eccG AAFG | A4- AAGG | G4 G4 | C2 CD EEEF | G2 G2 z GAB | c4 z/ c/d/e/ f2- | %22
w: me- a, et e- xal-|* tans ca- put me- um, et e-|xal- * tans ca- put|me- um,|glo- ri- a me- a, et e-|xal- tans ca- * *||
 f2 AG G4 | F8 :| %24
w: * * put me-|um.|
V:2
 [A,C]8- | [A,C]8- | [A,C]4 [F,A,D]4 | [G,CE]4 [A,CF]4 | c2 dc B2 A2 | G4- GF E2- | E2 D2 C2 =B,2 | %7
 [E,G,C]8 ::[M:3/4] [CEG-]6 | [_EG]6 | G4 F2 | G6 | [CF_A]4 [=B,DG]2 |[M:4/4] [CEG]4 [CFA]4- | %14
 [CFA]2 [DFA]6 | [DGd]4 [EG-c-]4 | [EGc]4 [CFA]4- | [CFA]4 [CF]2 [G,DG]2- | G2 F2 E4- | %19
 [G,CE]4 [E,G,C]4- | [E,G,C]4 [G,CE]4- | [G,CE]4 [A,CF]4- | F6 E2 | [A,CF]8 :| %24
V:3
 F,8- | F,8- | F,4 D,4 | C,4 F,,4 | F,2 B,A, G,2 D,C, | =B,,A,,G,,F,,E,,D,, C,,2 | F,,4 G,,4 | %7
 C,,8 ::[M:3/4] C,4 C,2 | C4 C2 | B,2 _A,4 | G,2 _E,4 | F,4 G,2 |[M:4/4] C,4 F,4- | F,2 D,4 C,2 | %15
 =B,,4 C,4 | E,4 F,4- | F,4 A,,2 B,,2 | =B,,4 C,4- | C,4 C,,4 | C,4 C,,4 | C,4 C,,4- | C,,8 | %23
 F,,8 :| %24
V:4
 x8 | x8 | x8 | x8 | A2 F2- FEFE | DC =B,2 CB, [G,C]2 | [A,C]4 [G,D]4 | x8 ::[M:3/4] x6 | x6 | %10
 D2 C4 | =B,2 C4 | x6 |[M:4/4] x8 | x8 | x8 | x8 | x8 | [G,D]4 [G,C]4- | x8 | x8 | x8 | %22
 [A,C-]4 [G,C]4 | x8 :| %24

